X:1
T:Rimsky-Korsakov Harmonic Exercises, Free Melodic Figuration
T:Rimsky-Korsakov Harmonic Exercises, Free Melodic Figuration (1) 
T:"Practical Manual of Harmony" (1885)
T:Examples by Rimsky-Korsakov
T:General rule: for all listed dissonant you should avoid doubling the resolution tone in other voices except for root tones in the bass and at least an octave away. Exceptions can sometimes be the bass of a sixth chord (example m4) and sometimes the fifth tone of a chord (example m3, m12). Interfering tones in other voices should be lead away (in the examples this is marked with dashes). All these gestures are intended primarily for decorating soprano, only occasionally can they be used for other voices. 
%%score { ( 1 2 ) | ( 3 4 ) }
L:1/8
M:2/4
K:C
V:1 treble nm="Piano" snm="Pno."
V:2 treble 
V:3 bass 
V:4 bass 
V:1
"^Passing and auxiliary tones on a strong beat (otherwise interpreted as suspensions prepared by the \nconjunct motion):""^The main techniques of the free melodic figuration" (G2 e2 | %1
 d2 !breath!c2) |][M:9/8][Q:1/4=90] (A3 B2 c dc!breath!g) |][M:2/4][Q:1/4=60] (fc d!breath!e) |] %4
[Q:1/4=50] (E/c/B/A/ ^G/A/B/!breath!A/) |] %5
[M:4/4][Q:1/4=100]"^Auxiliary tones on the strong and weak beat, taken by a jump\n(the first are called unprepared suspensions):\n" (^FG dc gf ^d!breath!e) |] %6
 (Gd cg f^d !breath!e2) |] %7
"^Jump from one auxiliary tone to another, and then resolution:" (GBdc B^G !breath!A2) |] %8
[M:6/8] (A^G_B A^cd | ef^d !breath!e3) |][M:4/4]"^Bad:" (EAGB dcB!breath!A) |] %11
"^Good:" (EAGB dcBA) |] %12
V:2
 (E4 | G4) |][M:9/8] (A3 _A3 G3) |][M:2/4] (_A2 G2) |] (E2 F2) |][M:4/4] (E2 G2 A2 G2) |] %6
 (E2 G2 c4) |] (G4 F4) |][M:6/8] (F6 | G6) |][M:4/4] C8 |] (C2 G4 F2) |] %12
V:3
 (C4 | G,4) |][M:9/8] (C6 G,3) |][M:2/4] C4 |] C4 |][M:4/4] (C2 G,2 C4) |] (G,4 A,2 G,2) |] %7
 (C2 G,2 C4) |][M:6/8] (D3 A,3 | A,6) |][M:4/4] (G,6 A,2) |] (G,6 C2) |] %12
V:4
 (C,4 | E,4) |][M:9/8] (F,6 E,3) |][M:2/4] (F,2 E,2) |] (A,2 F,2) |][M:4/4] (C,2 E,2 F,2 C,2) |] %6
 (C,2 E,2 F,2 C,2) |] (E,4 F,4) |][M:6/8] (D,6- | D,3 ^C,3) |][M:4/4] (C,2 E,4 F,2) |] %11
 (C,2 E,4 F,2) |] %12

